X:1
T:Wake! And Tune Your Youthful Voices
T:Wake! And Tune Your Youthful Voices
T:Frank Treat Southwick
T:John G. Robinson, 1903
T:Public Domain Courtesy of the Cyber Hymnal™
T:Public Domain Courtesy of the Cyber Hymnal™
C:Frank Treat Southwick
Z:Public Domain
Z:Courtesy of the Cyber Hymnal™
%%score ( 1 2 ) ( 3 4 )
L:1/8
Q:1/4=105
M:4/4
K:Bb
V:1 treble 
V:2 treble 
V:3 bass 
V:4 bass 
V:1
 F2 G2 A2 B2 | (AB) B2 A2 x4 | F2 A2 A2 G2 | E2 G2 [B,DF]4 | D2 [DF]2 [DFc]2 [DFB]2 | %5
w: 1.~Wake! and tune your|youth- * ful voic-|es, ’Tis the an-|ni- ver- sary|morn, When all Heav’n|
w: 2.~Shout a- loud your|songs * of glad-|ness, On this joy-|ful Christ- mas|morn, Let no dis-|
 (AB) (cB) A2 G2 x2 | [B,DF]2 [DG]2 [DA]2 [^CB]2 | [DBd]2 [EAc]2 [DB]4 x2 | %8
w: and * earth * re- joic-|es, O- ver Christ,|our Sav- ior|
w: mal * ray * of sad-|ness Dim the day|when Christ was|
 [DBd]2 [DBd]2 (dc) (BG) | [=E^F]2 [EG]2 [EA]2 [EG]2 | [FA]2 [Fd]2 [Fd]3 [Fc] | %11
w: born. An- gels * came *|from bright- est glo-|ry, Sing- ing car-|
w: born! Giv- ing * joy *|for ev- ery sor-|row, Peace to ev-|
 [F^GB]2 [FAc]2 ([CFA]2 [CF]2) | [=EBd]2 [EBd]2 (dc) (BG) | [C=E^F]2 [B,EG]2 [B,EA]2 [B,EG]2 | %14
w: ols of His *|birth, And the * shep- *|herds spread the sto-|
w: ery trou- bled *|breast, Point- ing * out *|a bright to- mor-|
 F2 G2 F2!<(! G2 | F2!<)! G2 [EF]4 ||"^Refrain" F2 G2 A2 B2 | (AB) (cB) B2 A2 | F2 A2 A2 G2 | %19
w: ry, “Peace, good- will|to men on|earth!” Wake! and tune|your * youth- * ful voic-|es, ’Tis the an-|
w: row Where the wea-|ry all find|rest. * * *|||
 E2 G2 [B,DF]4 | D2 [DF]2 [DFc]2 [DFB]2 | (AB) (cB) A2 G2 | [A,DF]2 [G,CG]2 [CFA]2 [B,FB]2 | %23
w: ni- ver- sary|morn, When all Heav’n|and * earth * re- joic-|es, O- ver Christ,|
w: ||||
 [=EBd]2 [_EAc]2 [DB]4 |] %24
w: our Sav- ior|
w: |
V:2
 D4 D4 | [DF]4 (cB) [EF]4 | [CE]4 [CEF]4 | A,4 x4 | D2 x6 | D2 F2 [B,=E]4 x2 | x8 | x10 | %8
 x4 [=EB]2 E2 | x8 | x8 | x8 | x4 [=EB]2 E2 | x8 | =B,4 [CE]4 | D4 x4 || [B,D]4 D4 | [DF]4 [EF]4 | %18
 [CE]4 [CEF]4 | A,4 x4 | D2 x6 | D2 F2 [B,=E]4 | x8 | x8 |] %24
V:3
 F,2 G,2 A,2 B,2 | (A,B,) B,2 A,2 x4 | F,2 A,2 A,2 G,2 | E,2 G,2 [B,,F,]4 | D,2 F,2 [F,,F,]4 | %5
 (A,B,) A,2 G,2 x4 | [F,,F,]2 [B,,F,]2 [A,,F,]2 [G,,=E,]2 | [F,,F,]2 F,2 F,4 [A,,B,,]2 | %8
 [G,,B,]2 [B,,B,]2 [G,B,]2 [C,C]2 | [G,A,B,]2 [C,C]2 [=E,C]2 [C,C]2 | %10
 [F,C]2 [C,A,]2 [F,^G,]2 [C,A,]2 | [F,D]2 [C,C]2 (F,,2 A,,2) | [C,C]2 [=E,C]2 [G,C]2 [C,C]2 | %13
 A,,2 C,2 =E,,2 G,,2 | [^G,,F,]4 [A,,F,]4 | F,4 [C,F,A,]4 || F,2 G,2 A,2 B,2 | %17
 (A,B,) (CB,) B,2 A,2 | F,2 A,2 A,2 G,2 | E,2 G,2 [B,,F,]4 | D,2 F,2 [F,,F,]4 | %21
 (A,B,) (CB,) A,2 G,2 | [F,,F,]2 [=E,,_E,]2 [_E,,E,]2 [D,,D,]2 | [C,,C,]2 [F,,F,]2 [B,,F,]4 |] %24
V:4
 B,,4 F,,4 | D,4 (CB,) C,4 | F,,4 A,,4 | F,,4 x4 | B,,4 x4 | D,4 (CB,) C,4 | x8 | x2 F,2 B,,2- x4 | %8
 x8 | x8 | x8 | x8 | x8 | x8 | x8 | B,,2 =B,,2 x4 || B,,4 F,,4 | D,4 C,4 | F,,4 A,,4 | F,,4 x4 | %20
 B,,4 x4 | D,4 C,4 | x8 | x8 |] %24

